images/form__close-icon/close_icon.svg

<svg width="38" height="38" viewBox="0 0 38 38" fill="none" xmlns="http://www.w3.org/2000/svg">
<path d="M27.171 8.78624L19 16.9572L10.829 8.78624L8.78625 10.829L16.9573 19L8.78625 27.171L10.829 29.2138L19 21.0428L27.171 29.2138L29.2138 27.171L21.0428 19L29.2138 10.829L27.171 8.78624Z" fill="white"/>
</svg>

<svg width="38" height="38" fill="none" xmlns="http://www.w3.org/2000/svg"><path d="M27.171 8.786L19 16.957l-8.171-8.17-2.043 2.042L16.957 19l-8.17 8.171 2.042 2.043L19 21.043l8.171 8.17 2.043-2.042L21.043 19l8.17-8.171-2.042-2.043z" fill="#fff"/></svg>
